packages/astro-components-stencil/src/icons/navigation.svg

<svg width="24" height="24" viewBox="0 0 24 24" fill="none" xmlns="http://www.w3.org/2000/svg">
<path d="M12.93 4.2602L19.08 19.2502C19.42 20.0802 18.57 20.9102 17.75 20.5402L12.41 18.1802C12.15 18.0702 11.86 18.0702 11.6 18.1802L6.26002 20.5402C5.44002 20.9002 4.59002 20.0802 4.93002 19.2502L11.08 4.2602C11.41 3.4302 12.59 3.4302 12.93 4.2602Z" fill="black"/>
</svg>

<svg xmlns="http://www.w3.org/2000/svg" viewBox="0 0 24 24"><g xmlns="http://www.w3.org/2000/svg" id="navigation" fill-rule="nonzero">
            <path d="M12.93 4.26l6.15 14.99c.34.83-.51 1.66-1.33 1.29l-5.34-2.36c-.26-.11-.55-.11-.81 0l-5.34 2.36c-.82.36-1.67-.46-1.33-1.29l6.15-14.99c.33-.83 1.51-.83 1.85 0z"/>
        </g></svg>
